X:15
M:6/8
L:1/8
Q:3/8=60
K:G
(3G/F/E/|DB,D DB,D|DB,C D2 G/>F/|(EGF) E>DE/F/|G>AB B2 (A/G/)|
(B/c/)|~d>ed dBd|e>ge e2 (d/c/)|B2 (A/G/) g(fe)|B2 A G2 (e/f/)|
g>fe edB|dBA B2G|ABd e>^de|GEE E2 (B/c/)|~d>ed d<Bd|d<Bd d2 (g/f/)|
(eg)f e>de/f/|g2f e2g|(G>AB/c/8d/8e/8f/8 g2) (f/e/)|d<BA G>(AB/c/)|

